Newaita-dark/apps/32/com.github.artemanufrij.webpin.svg

<svg height="32pt" viewBox="0 0 32 32" width="32pt" xmlns="http://www.w3.org/2000/svg" xmlns:xlink="http://www.w3.org/1999/xlink"><linearGradient id="a"><stop offset="0" stop-opacity=".313725"/><stop offset=".222222" stop-opacity=".27451"/><stop offset="1" stop-opacity="0"/></linearGradient><radialGradient id="b" cx="450.90894" cy="189.57936" gradientTransform="matrix(.00000017 -.0781325 -.140638 -.0000001 50.146085 64.256857)" gradientUnits="userSpaceOnUse" r="21.166656" xlink:href="#a"/><radialGradient id="c" cx="450.90894" cy="189.57936" gradientTransform="matrix(-.00000017 .0781325 .140638 .0000001 -19.716095 -6.865956)" gradientUnits="userSpaceOnUse" r="21.166656" xlink:href="#a"/><radialGradient id="d" cx="450.90894" cy="189.57936" gradientTransform="matrix(-.00000017 -.0781325 .140638 -.0000001 -19.716095 64.256857)" gradientUnits="userSpaceOnUse" r="21.166656" xlink:href="#a"/><radialGradient id="e" cx="450.90894" cy="189.57936" gradientTransform="matrix(.00000017 .0781325 -.140638 .0000001 50.146083 -6.865957)" gradientUnits="userSpaceOnUse" r="21.166656" xlink:href="#a"/><linearGradient id="f" gradientTransform="matrix(.0133601 0 0 .062506 10.15006 14.100309)" gradientUnits="userSpaceOnUse" x1="255.32306" x2="255.32304" y1="233.5" y2="254.66666"><stop offset="0" stop-opacity=".27451"/><stop offset="1" stop-opacity="0"/></linearGradient><linearGradient id="g" gradientUnits="userSpaceOnUse" x1="15.876524" x2="15.876524" y1="28.69545587502" y2="8.84980024996"><stop offset="0" stop-color="#42a5f5"/><stop offset="1" stop-color="#64b5f6"/></linearGradient><linearGradient id="h" gradientUnits="userSpaceOnUse" x1="15.876524" x2="15.876524" y1="26.71089012498" y2="2.89610412498"><stop offset="0" stop-color="#bdbdbd"/><stop offset="1" stop-color="#e0e0e0"/></linearGradient><path d="m23.816406 28.695312h2.644532v-1.324218h-2.644532zm0 0" fill="url(#b)"/><path d="m6.613281 28.695312h-2.644531v1.324219h2.644531zm0 0" fill="url(#c)"/><path d="m6.613281 28.695312h-2.644531v-1.324218h2.644531zm0 0" fill="url(#d)"/><path d="m23.816406 28.695312h2.644532v1.324219h-2.644532zm0 0" fill="url(#e)"/><path d="m6.613281 28.363281h17.203125v1.65625h-17.203125zm0 0" fill="url(#f)"/><path d="m15.203125 8.839844c-5.132813 0-9.261719 4.363281-9.261719 9.78125v.28125c0 .179687.003906.355468.011719.53125-2.226563.140625-3.980469 2.042968-3.980469 4.382812v.472656c0 2.433594 1.894532 4.394532 4.25 4.394532h3.699219v.011718h13.894531c3.664063 0 6.613282-2.953124 6.613282-6.617187 0-3.613281-2.863282-6.527344-6.457032-6.613281-1.234375-3.859375-4.6875-6.625-8.769531-6.625zm0 0" fill="url(#g)"/><path d="m6.589844 19.433594c-2.578125 0-4.65625 2.066406-4.65625 4.632812 0 .066406.003906.136719.007812.207032.105469-2.46875 2.140625-4.425782 4.648438-4.425782 2.511718 0 4.542968 1.957032 4.652344 4.425782 0-.070313.003906-.140626.003906-.207032 0-2.566406-2.078125-4.632812-4.65625-4.632812zm0 0" fill="#fafafa" fill-opacity=".392157"/><path d="m15.203125 8.839844c-5.132813 0-9.261719 4.363281-9.261719 9.78125v.28125.109375c.058594-5.367188 4.167969-9.664063 9.261719-9.664063 4.082031 0 7.535156 2.761719 8.769531 6.625 3.507813.082032 6.320313 2.867188 6.453125 6.359375.003907-.085937.003907-.167969.003907-.253906 0-3.613281-2.863282-6.527344-6.457032-6.613281-1.234375-3.859375-4.6875-6.625-8.769531-6.625zm-9.261719 10.59375c-2.222656.148437-3.96875 2.046875-3.96875 4.382812v.472656.019532c.007813-2.335938 1.757813-4.226563 3.980469-4.371094-.007813-.164062-.011719-.335938-.011719-.503906zm0 0" fill="#fff" fill-opacity=".392157"/><path d="m5.941406 18.503906v.117188.28125.023437h.011719c-.007813-.140625-.011719-.28125-.011719-.421875zm24.484375 3.320313c-.132812 3.546875-3.03125 6.363281-6.609375 6.363281h-13.894531v-.007812h-3.699219c-2.347656 0-4.242187-1.953126-4.25-4.378907v.015625.472656c0 2.433594 1.894532 4.394532 4.25 4.394532h3.699219v.011718h13.894531c3.664063 0 6.613282-2.953124 6.613282-6.617187 0-.085937 0-.167969-.003907-.253906zm0 0" fill-opacity=".235294"/><path d="m23.980469 15.464844c-3.574219 0-6.449219 2.949218-6.449219 6.617187 0 .082031 0 .164063.003906.246094.125-3.546875 2.953125-6.367187 6.445313-6.367187 3.492187 0 6.320312 2.820312 6.445312 6.367187.003907-.082031.003907-.164063.003907-.246094 0-3.667969-2.875-6.617187-6.449219-6.617187zm0 0" fill="#fafafa" fill-opacity=".392157"/><path d="m15.203125 8.746094c-5.183594 0-9.355469 4.40625-9.355469 9.875v.28125c0 .152344.003906.296875.011719.445312-2.238281.191406-3.980469 2.113282-3.980469 4.46875v.472656c0 2.484376 1.9375 4.488282 4.34375 4.488282h3.660156c.011719.007812.027344.011718.039063.011718h13.894531c3.714844 0 6.707032-2.996093 6.707032-6.710937 0-3.640625-2.871094-6.582031-6.480469-6.703125-1.265625-3.863281-4.734375-6.628906-8.839844-6.628906zm0 .1875c4.039063 0 7.457031 2.734375 8.683594 6.558594.011719.039062.046875.066406.085937.066406 3.539063.082031 6.363282 2.957031 6.363282 6.519531 0 3.613281-2.90625 6.523437-6.519532 6.523437h-13.855468c-.011719-.007812-.023438-.011718-.039063-.011718h-3.699219c-2.300781 0-4.15625-1.914063-4.15625-4.300782v-.472656c0-2.292968 1.714844-4.152344 3.894532-4.289062.050781-.003906.089843-.046875.085937-.101563-.007813-.171875-.011719-.347656-.011719-.523437v-.28125c0-5.371094 4.089844-9.6875 9.167969-9.6875zm0 0" fill="#212121"/><path d="m8.140625 2.738281c-.835937-.015625-1.546875.601563-1.644531 1.429688-.945313 6.984375.882812 14.074219 2.132812 19.554687.148438.648438.675782 1.140625 1.332032 1.242188.660156.105468 1.3125-.203125 1.652343-.773438l4.09375-6.902344 2.117188 7.742188c.175781.640625.722656 1.109375 1.386719 1.183594.660156.074218 1.296874-.257813 1.613281-.84375 2.671875-4.972656 6.34375-11.609375 7.246093-18.289063.085938-.578125-.144531-1.160156-.609374-1.519531-.460938-.359375-1.078126-.441406-1.621094-.21875-.539063.226562-.917969.722656-.988282 1.304688-.601562 4.453124-2.78125 9.289062-4.976562 13.558593l-2.042969-7.472656c-.171875-.628906-.703125-1.09375-1.351562-1.179687-.644531-.085938-1.28125.21875-1.613281.78125l-3.960938 6.675781c-.996094-4.617188-1.828125-9.6875-1.191406-14.410157.070312-.460937-.0625-.929687-.367188-1.289062-.300781-.355469-.742187-.566406-1.207031-.574219zm0 0" fill="url(#h)"/><path d="m8.140625 2.738281c-.835937-.015625-1.546875.601563-1.644531 1.429688-.195313 1.429687-.269532 2.863281-.261719 4.289062.011719-1.257812.089844-2.523437.261719-3.785156.097656-.828125.808594-1.445313 1.644531-1.429687.789063.015624 1.453125.597656 1.574219 1.375 0-.003907 0-.007813 0-.015626.070312-.460937-.0625-.929687-.367188-1.289062-.300781-.355469-.742187-.566406-1.207031-.574219zm18.351563 2.480469c-.832032-.011719-1.539063.601562-1.640626 1.429688-.601562 4.453124-2.78125 9.289062-4.976562 13.558593l-2.042969-7.472656c-.171875-.628906-.703125-1.09375-1.351562-1.179687-.644531-.085938-1.28125.21875-1.613281.78125l-3.960938 6.675781c-.726562-3.363281-1.363281-6.96875-1.410156-10.503907-.003906.222657-.003906.441407-.003906.660157 0-.050781.003906-.101563.003906-.152344.046875 3.535156.683594 7.136719 1.410156 10.503906l3.960938-6.679687c.332031-.558594.96875-.867188 1.613281-.78125.648437.089844 1.179687.554687 1.351562 1.183594l2.042969 7.46875c2.195312-4.269532 4.375-9.101563 4.976562-13.558594.101563-.824219.808594-1.441406 1.640626-1.425782.789062.011719 1.453124.59375 1.578124 1.371094 0-.003906 0-.007812 0-.015625.070313-.460937-.066406-.929687-.367187-1.289062-.300781-.355469-.742187-.566407-1.210937-.574219zm0 0" fill="#fff" fill-opacity=".784314"/><path d="m6.753906 14.597656c-.035156.074219-.066406.152344-.097656.226563.492188 3.542969 1.3125 6.886719 1.972656 9.78125.148438.648437.675782 1.140625 1.332032 1.242187.660156.105469 1.3125-.203125 1.652343-.773437l4.09375-6.902344 2.117188 7.738281c.175781.644532.722656 1.113282 1.386719 1.1875.660156.074219 1.296874-.261718 1.613281-.84375 1.609375-3 3.585937-6.601562 5.097656-10.449218-.105469-.035157-.210937-.070313-.316406-.097657-1.464844 3.554688-3.28125 6.871094-4.78125 9.664063-.316407.585937-.953125.917968-1.613281.84375-.664063-.074219-1.210938-.542969-1.386719-1.183594l-2.117188-7.742188-4.09375 6.902344c-.339843.570313-.992187.878906-1.652343.773438-.65625-.101563-1.183594-.59375-1.332032-1.242188-.621094-2.714844-1.382812-5.828125-1.875-9.125zm0 0" fill-opacity=".235294"/><path d="m130.237563-171.191683c-13.373723-.249977-24.747637 9.62408-26.309988 22.872815-15.123555 111.73933 14.123652 225.165998 34.121742 312.845125 2.374773 10.374009 10.811468 18.248257 21.310465 19.873102 10.561491 1.687339 20.997995-3.249689 26.434975-12.373818l65.493746-110.426955 33.871766 123.863172c2.812231 10.249021 11.561395 17.748305 22.185381 18.935692 10.561491 1.187386 20.748019-4.124607 25.810035-13.498711 42.745918-79.554903 101.490308-185.732264 115.92643-292.597059 1.374869-9.249117-2.312279-18.560727-9.749069-24.310178-7.374296-5.749451-17.248353-7.061826-25.935024-3.499666-8.624176 3.624654-14.686097 11.561396-15.81099 20.873007-9.624081 71.243196-44.495751 148.610808-79.617397 216.916785l-32.684378-119.551083c-2.749738-10.061539-11.248926-17.498329-21.622935-18.873198-10.311516-1.374869-20.498043 3.499666-25.810036 12.498806l-63.368948 106.802301c-15.935979-73.867946-29.247207-154.985199-19.06068-230.540484 1.124892-7.374296-.999905-14.87358-5.874439-20.623031-4.812041-5.686957-11.873866-9.061634-19.310656-9.186622zm0 0" fill="none" stroke="#212121" stroke-linecap="round" stroke-linejoin="round" stroke-width="3" transform="matrix(.062506 0 0 .062506 0 13.438783)"/></svg>

<?xml version="1.0" encoding="UTF-8"?>
<svg xmlns="http://www.w3.org/2000/svg" xmlns:xlink="http://www.w3.org/1999/xlink" width="32pt" height="32pt" viewBox="0 0 32 32" version="1.1">
<defs>
<radialGradient id="radial0" gradientUnits="userSpaceOnUse" cx="450.90894" cy="189.57936" fx="450.90894" fy="189.57936" r="21.166656" gradientTransform="matrix(0.00000017417,-0.0781325,-0.140638,-0.000000101539,50.146085,64.256857)">
<stop offset="0" style="stop-color:rgb(0%,0%,0%);stop-opacity:0.313725;"/>
<stop offset="0.222222" style="stop-color:rgb(0%,0%,0%);stop-opacity:0.27451;"/>
<stop offset="1" style="stop-color:rgb(0%,0%,0%);stop-opacity:0;"/>
</radialGradient>
<radialGradient id="radial1" gradientUnits="userSpaceOnUse" cx="450.90894" cy="189.57936" fx="450.90894" fy="189.57936" r="21.166656" gradientTransform="matrix(-0.00000017417,0.0781325,0.140638,0.000000101539,-19.716095,-6.865956)">
<stop offset="0" style="stop-color:rgb(0%,0%,0%);stop-opacity:0.313725;"/>
<stop offset="0.222222" style="stop-color:rgb(0%,0%,0%);stop-opacity:0.27451;"/>
<stop offset="1" style="stop-color:rgb(0%,0%,0%);stop-opacity:0;"/>
</radialGradient>
<radialGradient id="radial2" gradientUnits="userSpaceOnUse" cx="450.90894" cy="189.57936" fx="450.90894" fy="189.57936" r="21.166656" gradientTransform="matrix(-0.00000017417,-0.0781325,0.140638,-0.000000101539,-19.716095,64.256857)">
<stop offset="0" style="stop-color:rgb(0%,0%,0%);stop-opacity:0.313725;"/>
<stop offset="0.222222" style="stop-color:rgb(0%,0%,0%);stop-opacity:0.27451;"/>
<stop offset="1" style="stop-color:rgb(0%,0%,0%);stop-opacity:0;"/>
</radialGradient>
<radialGradient id="radial3" gradientUnits="userSpaceOnUse" cx="450.90894" cy="189.57936" fx="450.90894" fy="189.57936" r="21.166656" gradientTransform="matrix(0.00000017417,0.0781325,-0.140638,0.000000101539,50.146083,-6.865957)">
<stop offset="0" style="stop-color:rgb(0%,0%,0%);stop-opacity:0.313725;"/>
<stop offset="0.222222" style="stop-color:rgb(0%,0%,0%);stop-opacity:0.27451;"/>
<stop offset="1" style="stop-color:rgb(0%,0%,0%);stop-opacity:0;"/>
</radialGradient>
<linearGradient id="linear0" gradientUnits="userSpaceOnUse" x1="255.32306" y1="233.5" x2="255.32304" y2="254.66666" gradientTransform="matrix(0.0133601,0,0,0.062506,10.15006,14.100309)">
<stop offset="0" style="stop-color:rgb(0%,0%,0%);stop-opacity:0.27451;"/>
<stop offset="1" style="stop-color:rgb(0%,0%,0%);stop-opacity:0;"/>
</linearGradient>
<linearGradient id="linear1" gradientUnits="userSpaceOnUse" x1="254" y1="191.16667" x2="254" y2="-126.33334" gradientTransform="matrix(0.062506,0,0,0.062506,0,16.746392)">
<stop offset="0" style="stop-color:rgb(25.882353%,64.705882%,96.078431%);stop-opacity:1;"/>
<stop offset="1" style="stop-color:rgb(39.215686%,70.980392%,96.470588%);stop-opacity:1;"/>
</linearGradient>
<linearGradient id="linear2" gradientUnits="userSpaceOnUse" x1="254" y1="212.33333" x2="254" y2="-168.66667" gradientTransform="matrix(0.062506,0,0,0.062506,0,13.438783)">
<stop offset="0" style="stop-color:rgb(74.117647%,74.117647%,74.117647%);stop-opacity:1;"/>
<stop offset="1" style="stop-color:rgb(87.843137%,87.843137%,87.843137%);stop-opacity:1;"/>
</linearGradient>
</defs>
<g id="surface1">
<path style=" stroke:none;fill-rule:nonzero;fill:url(#radial0);" d="M 23.816406 28.695312 L 26.460938 28.695312 L 26.460938 27.371094 L 23.816406 27.371094 Z M 23.816406 28.695312 "/>
<path style=" stroke:none;fill-rule:nonzero;fill:url(#radial1);" d="M 6.613281 28.695312 L 3.96875 28.695312 L 3.96875 30.019531 L 6.613281 30.019531 Z M 6.613281 28.695312 "/>
<path style=" stroke:none;fill-rule:nonzero;fill:url(#radial2);" d="M 6.613281 28.695312 L 3.96875 28.695312 L 3.96875 27.371094 L 6.613281 27.371094 Z M 6.613281 28.695312 "/>
<path style=" stroke:none;fill-rule:nonzero;fill:url(#radial3);" d="M 23.816406 28.695312 L 26.460938 28.695312 L 26.460938 30.019531 L 23.816406 30.019531 Z M 23.816406 28.695312 "/>
<path style=" stroke:none;fill-rule:nonzero;fill:url(#linear0);" d="M 6.613281 28.363281 L 23.816406 28.363281 L 23.816406 30.019531 L 6.613281 30.019531 Z M 6.613281 28.363281 "/>
<path style=" stroke:none;fill-rule:nonzero;fill:url(#linear1);" d="M 15.203125 8.839844 C 10.070312 8.839844 5.941406 13.203125 5.941406 18.621094 L 5.941406 18.902344 C 5.941406 19.082031 5.945312 19.257812 5.953125 19.433594 C 3.726562 19.574219 1.972656 21.476562 1.972656 23.816406 L 1.972656 24.289062 C 1.972656 26.722656 3.867188 28.683594 6.222656 28.683594 L 9.921875 28.683594 L 9.921875 28.695312 L 23.816406 28.695312 C 27.480469 28.695312 30.429688 25.742188 30.429688 22.078125 C 30.429688 18.464844 27.566406 15.550781 23.972656 15.464844 C 22.738281 11.605469 19.285156 8.839844 15.203125 8.839844 Z M 15.203125 8.839844 "/>
<path style=" stroke:none;fill-rule:nonzero;fill:rgb(98.039216%,98.039216%,98.039216%);fill-opacity:0.392157;" d="M 6.589844 19.433594 C 4.011719 19.433594 1.933594 21.5 1.933594 24.066406 C 1.933594 24.132812 1.9375 24.203125 1.941406 24.273438 C 2.046875 21.804688 4.082031 19.847656 6.589844 19.847656 C 9.101562 19.847656 11.132812 21.804688 11.242188 24.273438 C 11.242188 24.203125 11.246094 24.132812 11.246094 24.066406 C 11.246094 21.5 9.167969 19.433594 6.589844 19.433594 Z M 6.589844 19.433594 "/>
<path style=" stroke:none;fill-rule:nonzero;fill:rgb(100%,100%,100%);fill-opacity:0.392157;" d="M 15.203125 8.839844 C 10.070312 8.839844 5.941406 13.203125 5.941406 18.621094 L 5.941406 18.902344 C 5.941406 18.9375 5.941406 18.976562 5.941406 19.011719 C 6 13.644531 10.109375 9.347656 15.203125 9.347656 C 19.285156 9.347656 22.738281 12.109375 23.972656 15.972656 C 27.480469 16.054688 30.292969 18.839844 30.425781 22.332031 C 30.429688 22.246094 30.429688 22.164062 30.429688 22.078125 C 30.429688 18.464844 27.566406 15.550781 23.972656 15.464844 C 22.738281 11.605469 19.285156 8.839844 15.203125 8.839844 Z M 5.941406 19.433594 C 3.71875 19.582031 1.972656 21.480469 1.972656 23.816406 L 1.972656 24.289062 C 1.972656 24.296875 1.972656 24.300781 1.972656 24.308594 C 1.980469 21.972656 3.730469 20.082031 5.953125 19.9375 C 5.945312 19.773438 5.941406 19.601562 5.941406 19.433594 Z M 5.941406 19.433594 "/>
<path style=" stroke:none;fill-rule:nonzero;fill:rgb(0%,0%,0%);fill-opacity:0.235294;" d="M 5.941406 18.503906 C 5.941406 18.542969 5.941406 18.582031 5.941406 18.621094 L 5.941406 18.902344 C 5.941406 18.910156 5.941406 18.917969 5.941406 18.925781 C 5.945312 18.925781 5.949219 18.925781 5.953125 18.925781 C 5.945312 18.785156 5.941406 18.644531 5.941406 18.503906 Z M 30.425781 21.824219 C 30.292969 25.371094 27.394531 28.1875 23.816406 28.1875 L 9.921875 28.1875 L 9.921875 28.179688 L 6.222656 28.179688 C 3.875 28.179688 1.980469 26.226562 1.972656 23.800781 C 1.972656 23.804688 1.972656 23.8125 1.972656 23.816406 L 1.972656 24.289062 C 1.972656 26.722656 3.867188 28.683594 6.222656 28.683594 L 9.921875 28.683594 L 9.921875 28.695312 L 23.816406 28.695312 C 27.480469 28.695312 30.429688 25.742188 30.429688 22.078125 C 30.429688 21.992188 30.429688 21.910156 30.425781 21.824219 Z M 30.425781 21.824219 "/>
<path style=" stroke:none;fill-rule:nonzero;fill:rgb(98.039216%,98.039216%,98.039216%);fill-opacity:0.392157;" d="M 23.980469 15.464844 C 20.40625 15.464844 17.53125 18.414062 17.53125 22.082031 C 17.53125 22.164062 17.53125 22.246094 17.535156 22.328125 C 17.660156 18.78125 20.488281 15.960938 23.980469 15.960938 C 27.472656 15.960938 30.300781 18.78125 30.425781 22.328125 C 30.429688 22.246094 30.429688 22.164062 30.429688 22.082031 C 30.429688 18.414062 27.554688 15.464844 23.980469 15.464844 Z M 23.980469 15.464844 "/>
<path style=" stroke:none;fill-rule:nonzero;fill:rgb(12.941176%,12.941176%,12.941176%);fill-opacity:1;" d="M 15.203125 8.746094 C 10.019531 8.746094 5.847656 13.152344 5.847656 18.621094 L 5.847656 18.902344 C 5.847656 19.054688 5.851562 19.199219 5.859375 19.347656 C 3.621094 19.539062 1.878906 21.460938 1.878906 23.816406 L 1.878906 24.289062 C 1.878906 26.773438 3.816406 28.777344 6.222656 28.777344 L 9.882812 28.777344 C 9.894531 28.785156 9.910156 28.789062 9.921875 28.789062 L 23.816406 28.789062 C 27.53125 28.789062 30.523438 25.792969 30.523438 22.078125 C 30.523438 18.4375 27.652344 15.496094 24.042969 15.375 C 22.777344 11.511719 19.308594 8.746094 15.203125 8.746094 Z M 15.203125 8.933594 C 19.242188 8.933594 22.660156 11.667969 23.886719 15.492188 C 23.898438 15.53125 23.933594 15.558594 23.972656 15.558594 C 27.511719 15.640625 30.335938 18.515625 30.335938 22.078125 C 30.335938 25.691406 27.429688 28.601562 23.816406 28.601562 L 9.960938 28.601562 C 9.949219 28.59375 9.9375 28.589844 9.921875 28.589844 L 6.222656 28.589844 C 3.921875 28.589844 2.066406 26.675781 2.066406 24.289062 L 2.066406 23.816406 C 2.066406 21.523438 3.78125 19.664062 5.960938 19.527344 C 6.011719 19.523438 6.050781 19.480469 6.046875 19.425781 C 6.039062 19.253906 6.035156 19.078125 6.035156 18.902344 L 6.035156 18.621094 C 6.035156 13.25 10.125 8.933594 15.203125 8.933594 Z M 15.203125 8.933594 "/>
<path style=" stroke:none;fill-rule:nonzero;fill:url(#linear2);" d="M 8.140625 2.738281 C 7.304688 2.722656 6.59375 3.339844 6.496094 4.167969 C 5.550781 11.152344 7.378906 18.242188 8.628906 23.722656 C 8.777344 24.371094 9.304688 24.863281 9.960938 24.964844 C 10.621094 25.070312 11.273438 24.761719 11.613281 24.191406 L 15.707031 17.289062 L 17.824219 25.03125 C 18 25.671875 18.546875 26.140625 19.210938 26.214844 C 19.871094 26.289062 20.507812 25.957031 20.824219 25.371094 C 23.496094 20.398438 27.167969 13.761719 28.070312 7.082031 C 28.15625 6.503906 27.925781 5.921875 27.460938 5.5625 C 27 5.203125 26.382812 5.121094 25.839844 5.34375 C 25.300781 5.570312 24.921875 6.066406 24.851562 6.648438 C 24.25 11.101562 22.070312 15.9375 19.875 20.207031 L 17.832031 12.734375 C 17.660156 12.105469 17.128906 11.640625 16.480469 11.554688 C 15.835938 11.46875 15.199219 11.773438 14.867188 12.335938 L 10.90625 19.011719 C 9.910156 14.394531 9.078125 9.324219 9.714844 4.601562 C 9.785156 4.140625 9.652344 3.671875 9.347656 3.3125 C 9.046875 2.957031 8.605469 2.746094 8.140625 2.738281 Z M 8.140625 2.738281 "/>
<path style=" stroke:none;fill-rule:nonzero;fill:rgb(100%,100%,100%);fill-opacity:0.784314;" d="M 8.140625 2.738281 C 7.304688 2.722656 6.59375 3.339844 6.496094 4.167969 C 6.300781 5.597656 6.226562 7.03125 6.234375 8.457031 C 6.246094 7.199219 6.324219 5.933594 6.496094 4.671875 C 6.59375 3.84375 7.304688 3.226562 8.140625 3.242188 C 8.929688 3.257812 9.59375 3.839844 9.714844 4.617188 C 9.714844 4.613281 9.714844 4.609375 9.714844 4.601562 C 9.785156 4.140625 9.652344 3.671875 9.347656 3.3125 C 9.046875 2.957031 8.605469 2.746094 8.140625 2.738281 Z M 26.492188 5.21875 C 25.660156 5.207031 24.953125 5.820312 24.851562 6.648438 C 24.25 11.101562 22.070312 15.9375 19.875 20.207031 L 17.832031 12.734375 C 17.660156 12.105469 17.128906 11.640625 16.480469 11.554688 C 15.835938 11.46875 15.199219 11.773438 14.867188 12.335938 L 10.90625 19.011719 C 10.179688 15.648438 9.542969 12.042969 9.496094 8.507812 C 9.492188 8.730469 9.492188 8.949219 9.492188 9.167969 C 9.492188 9.117188 9.496094 9.066406 9.496094 9.015625 C 9.542969 12.550781 10.179688 16.152344 10.90625 19.519531 L 14.867188 12.839844 C 15.199219 12.28125 15.835938 11.972656 16.480469 12.058594 C 17.128906 12.148438 17.660156 12.613281 17.832031 13.242188 L 19.875 20.710938 C 22.070312 16.441406 24.25 11.609375 24.851562 7.152344 C 24.953125 6.328125 25.660156 5.710938 26.492188 5.726562 C 27.28125 5.738281 27.945312 6.320312 28.070312 7.097656 C 28.070312 7.09375 28.070312 7.089844 28.070312 7.082031 C 28.140625 6.621094 28.003906 6.152344 27.703125 5.792969 C 27.402344 5.4375 26.960938 5.226562 26.492188 5.21875 Z M 26.492188 5.21875 "/>
<path style=" stroke:none;fill-rule:nonzero;fill:rgb(0%,0%,0%);fill-opacity:0.235294;" d="M 6.753906 14.597656 C 6.71875 14.671875 6.6875 14.75 6.65625 14.824219 C 7.148438 18.367188 7.96875 21.710938 8.628906 24.605469 C 8.777344 25.253906 9.304688 25.746094 9.960938 25.847656 C 10.621094 25.953125 11.273438 25.644531 11.613281 25.074219 L 15.707031 18.171875 L 17.824219 25.910156 C 18 26.554688 18.546875 27.023438 19.210938 27.097656 C 19.871094 27.171875 20.507812 26.835938 20.824219 26.253906 C 22.433594 23.253906 24.410156 19.652344 25.921875 15.804688 C 25.816406 15.769531 25.710938 15.734375 25.605469 15.707031 C 24.140625 19.261719 22.324219 22.578125 20.824219 25.371094 C 20.507812 25.957031 19.871094 26.289062 19.210938 26.214844 C 18.546875 26.140625 18 25.671875 17.824219 25.03125 L 15.707031 17.289062 L 11.613281 24.191406 C 11.273438 24.761719 10.621094 25.070312 9.960938 24.964844 C 9.304688 24.863281 8.777344 24.371094 8.628906 23.722656 C 8.007812 21.007812 7.246094 17.894531 6.753906 14.597656 Z M 6.753906 14.597656 "/>
<path style="fill:none;stroke-width:3;stroke-linecap:round;stroke-linejoin:round;stroke:rgb(12.941176%,12.941176%,12.941176%);stroke-opacity:1;stroke-miterlimit:4;" d="M 130.237563 -171.191683 C 116.86384 -171.44166 105.489926 -161.567603 103.927575 -148.318868 C 88.80402 -36.579538 118.051227 76.84713 138.049317 164.526257 C 140.42409 174.900266 148.860785 182.774514 159.359782 184.399359 C 169.921273 186.086698 180.357777 181.14967 185.794757 172.025541 L 251.288503 61.598586 L 285.160269 185.461758 C 287.9725 195.710779 296.721664 203.210063 307.34565 204.39745 C 317.907141 205.584836 328.093669 200.272843 333.155685 190.898739 C 375.901603 111.343836 434.645993 5.166475 449.082115 -101.69832 C 450.456984 -110.947437 446.769836 -120.259047 439.333046 -126.008498 C 431.95875 -131.757949 422.084693 -133.070324 413.398022 -129.508164 C 404.773846 -125.88351 398.711925 -117.946768 397.587032 -108.635157 C 387.962951 -37.391961 353.091281 39.975651 317.969635 108.281628 L 285.285257 -11.269455 C 282.535519 -21.330994 274.036331 -28.767784 263.662322 -30.142653 C 253.350806 -31.517522 243.164279 -26.642987 237.852286 -17.643847 L 174.483338 89.158454 C 158.547359 15.290508 145.236131 -65.826745 155.422658 -141.38203 C 156.54755 -148.756326 154.422753 -156.25561 149.548219 -162.005061 C 144.736178 -167.692018 137.674353 -171.066695 130.237563 -171.191683 Z M 130.237563 -171.191683 " transform="matrix(0.062506,0,0,0.062506,0,13.438783)"/>
</g>
</svg>
